X:165
T: Westport Chorus [The]
R: reel
D: Irish Dance Music (ed. Reg Hall)
D: Frank Quinn & P. Crowley 1926
N: close relative of "O'Rourke's/Wild Irishman"
M: 4/4
L: 1/8
K: D
AG|(3FED AD BDAG|FDAF G2 AG|FDAD BA~A2|(3Bcd cA G2 :|
AB|(3cBA BG A2AB|(3cBA BG Ad~d2|cABG A2~A2|BdcA G2 :|
